!!!!SEGMENT: pl-sa--548-a-ix-28--011_anonim--kotylion.krn
!!!cenid: 18xx:434
!!!COM: Anonim
!!!COM-rismID: pe30004985
!!!CDT:
!!!CNT:
!!!OTL: Kotylion
!!!PDT:
!!!AGN:
!!!SMS-siglum: PL-SA
!!!SMS-shelfmark: 548/A IX 28
!!!SMS-shelfwork: 011 W
!!!SMS-variant:
!!!SMS-altvar:
!!!NIFC-rismSourceID: 1001068962
!!!NIFC-islandoraID:
!!!URL-pdf-islandora:
!!!URL-scan: https://bc.bdsandomierz.pl/dlibra/publication/1440/edition/1408/content @EN{Scan on Cyfrowa Biblioteka Diecezjalna w Sandomierzu} @PL{Skany w portalu Cyfrowa Biblioteka Diecezjalna w Sandomierzu}
!!!ONB-nifc: Str. 15, s. 2-5
!!!AIN: 1 empty
!!!key:
**kern	**kern
*part1	*part1
*staff2	*staff1
*I"Piano	*
*I'P-no	*
*Iempty	*Iempty
*I"Kotylion	*
*clefF4	*clefG2
*k[f#c#]	*k[f#c#]
*D:	*D:
*M3/8	*M3/8
!	!LO:TX:a:t=P:problem=all\right&colon; global
8r	8a\
=1	=1
!LO:TX:a:t=P:problem=all\right&colon; global	!
8D\L	8a\L
8A 8F#\	8dd\
8AJ 8F#\	8dd\J
=2	=2
.	8qee/
*rep	*
!LO:TX:a:t=P:problem=brak oznaczeń cyfrowych nad powtórzeniami	!
8D\L	8dd\L
8A 8F#\	8cc#\
8AJ 8F#\	8dd\J
*Xrep	*
=3	=3
!LO:TX:a:t=P:problem=mixed beam	!
8GG/L	8b\L
8G\	8ee\
8G\J	8ee\J
=4	=4
.	8qff#/
*rep	*
!LO:TX:a:t=P:problem=mixed beam	!
8GG/L	8ee\L
8G\	8dd#X\
8G\J	8ee\J
*Xrep	*
=5	=5
.	8qdd/
!LO:TX:a:t=P:problem=mixed beam	!
8AA/L	8cc#\L
8A\	8b\
8A\J	8cc#\J
=6	=6
*rep	*
!LO:TX:a:t=P:problem=mixed beam	!
8AA/L	8a\L
8A\	8b\
8A\J	8cc#\J
*Xrep	*
=7	=7
8D\L	8dd\L
8c# 8A\	8ff#\
8c#J 8A\	8aa\J
=	=
4F# 4D\	4dd\
!!LO:LB:g=original
=8:|!	=8:|!
8r	8a/
=9	=9
4e 4A\	4ee\
8e 8A\	8ee\
=10	=10
*rep	*
.	4qqdd
4e 4A\	8cc#\L
.	8b\
8e 8A\	8cc#\J
*Xrep	*
=11	=11
4d 4F#\	8dd\L
.	8ff#\
8d 8F#\	8ee\J
=12	=12
*rep	*
4d 4F#\	8dd\L
.	8bb\
8d 8F#\	8aa\J
*Xrep	*
=13	=13
4e 4A\	4ee\
8e 8A\	8ee\
=14	=14
*rep	*
.	8qqdd
4e 4A\	8cc#\L
.	8b\
8e 8A\	8dd\J
*Xrep	*
=15	=15
4d 4F#\	8dd\L
.	8ff#\
8e 8A\	8ee\J
=	=
4d 4A 4F#\	4dd\
!!LO:LB:g=original
=16:|!	=16:|!
8r	8dd\
=17	=17
8D\L	4ff# 4dd\
8d\	.
8B\J	8ff# 8dd\
=18	=18
*rep	*
8D\L	8aaL 8ff#\
8d\	8gg 8ee\
8B\J	8ff#J 8dd\
*Xrep	*
=19	=19
!LO:TX:a:t=P:problem=mixed beam	!
8AA/L	4ee 4cc#\
8A\	.
8A\J	8ee 8cc#\
=20	=20
*rep	*
!LO:TX:a:t=P:problem=mixed beam	!
8AA/L	8ggL 8ee\
8A\	8ff# 8dd\
8A\J	8eeJ 8cc#\
*Xrep	*
=21	=21
!	!LO:N:vis=8
8D\L	8.aaL 8.ff#\
8d\	.
.	16aaL 16ff#\
8d\J	16bb 16gg\
.	16aaJJ 16ff#\
=22	=22
*rep	*
8D\L	8dddL 8ff#\
8d\	8aa\
8d\J	8ff#\J
*Xrep	*
=23	=23
!LO:TX:a:t=P:problem=mixed beam	!
8AA/L	8gg\L
8A\	8ee\
8A\J	8cc#\J
=	=
4D\	4dd\
!!LO:LB:g=original
=24:|!	=24:|!
8r	16dd\LL
.	16ff#\JJ
=25	=25
8D\L	4aa 4ff# 4dd\
8A 8F#\	.
8AJ 8F#\	8ff#\
=26	=26
*rep	*
!	!LO:TX:a:t=P:problem=trudny do identyfikacji znak nad nutą. Przyjęto obiegnik
8D\L	8dd$\L
8A 8F#\	8ff#\
8AJ 8F#\	8a\J
*Xrep	*
=27	=27
!LO:TX:a:t=P:problem=mixed beam	!
8AA/L	4gg 4ee 4cc#\
8A\	.
8A\J	8ee\
=28	=28
*rep	*
!LO:TX:a:t=P:problem=mixed beam	!
8AA/L	8cc#\L
8A\	8ee\
8A\J	8a\J
*Xrep	*
=29	=29
8AL 8AA/	8a\L
8G#X 8GG#X/	8b\
8GnJ 8GGn/	8cc#\J
=30	=30
8F#L 8FF#/	8.dd\L
8E 8EE/	.
!	!LO:N:vis=8
.	16ee\K
!LO:SIC:s=DD	!
8DJ 8FF#/	8ff#\J
=31	=31
8AL 8AA/	8aa\L
8B 8BB/	8gg\
8c#J 8C#X/	8ee\J
=32	=32
4A 4F# 4D\	4dd\
==:|!	==:|!
*-	*-
!!!system-decoration: {(s1,s2)}
!!!RDF**kern: > = above
!!!RDF**kern: < = below
!!!EED: Mateusz Mrugas
!!!EEV: 2020-11-23
!!!ENC: Marcin Jachim
!!!END: 2020-06-15
